!!!COM: Bach, Johann Sebastian
!!!OTL: 153. Alle Menschen muessen sterben
!!!ONM: No. 153
!!!OCL: Erk
!!!SCA: BWV 262
!!!YOE: Riemenschneider, Albert
!!!OPR: 371 Harmonized Chorales and 69 Chorale Melodies with Figured Bass
!!!OPT: Bach Chorale Harmonizations
**harm	**root	**kern	**kern	**kern	**kern
!	!	!bass	!tenor	!alto	!sprno
*Iorgan	*Iorgan	*Iorgan	*Iorgan	*Iorgan	*Iorgan
*>[A,A,B]	*>[A,A,B]	*>[A,A,B]	*>[A,A,B]	*>[A,A,B]	*>[A,A,B]
*>norep[A,B]	*>norep[A,B]	*>norep[A,B]	*>norep[A,B]	*>norep[A,B]	*>norep[A,B]
*>A	*>A	*>A	*>A	*>A	*>A
*k[b-e-]	*k[b-e-]	*k[b-e-]	*k[b-e-]	*k[b-e-]	*k[b-e-]
*B-:	*B-:	*B-:	*B-:	*B-:	*B-:
*met(c)	*met(c)	*met(c)	*met(c)	*met(c)	*met(c)
*M4/4	*M4/4	*M4/4	*M4/4	*M4/4	*M4/4
*MM60	*MM60	*MM60	*MM60	*MM60	*MM60
=1-	=1-	=1-	=1-	=1-	=1-
I	4DD	4BB-	4D	4B-	4f
vi	4BB	4GG	8D	4B-	4b-
.	.	.	8E-	.	.
Ib	4DD	4DD	4F	4B-	4f
IV	4GG	4EE-	8E-	4B-	4g
.	.	.	8D	.	.
=2	=2	=2	=2	=2	=2
V	4AA	4FF	8C	4B-	4.f
.	.	.	8BB-	.	.
V	4AA	4FF	4C	4A	.
.	.	.	.	.	8e-
I	4DD	4BBB-	4BB-	4B-	4d
I;	4DD;	4BBB-;	4BB-;	4B-;	4d;
=3	=3	=3	=3	=3	=3
I	4DD	4BB-	4D	4B-	4f
I	4DD	4BB-	4D	8B-	4f
.	.	.	.	8A	.
ii	4EE	4C	4E-	8G	4e-
.	.	.	.	8A	.
Ib	4DD	4D	4F	[4B-	4d
=4	=4	=4	=4	=4	=4
ii7b	4EE	8E-	4G	4B-]	4.c
.	.	8C	.	.	.
V	4AA	8F	8.F	4A	.
.	.	8FF	.	.	8B-
.	.	.	16E-	.	.
I;	2DD;	2BB-;	2D;	2B-;	2B-;
=5:|!	=5:|!	=5:|!	=5:|!	=5:|!	=5:|!
*>B	*>B	*>B	*>B	*>B	*>B
V	4AA	4FF	4F	4A	4c
V	4AA	4FF	4F	4A	4c
I	4DD	4BB-	4F	4B-	8d
.	.	.	.	.	8e
iii	4FF#	8D	4F	4A	4f
.	.	8C	.	.	.
=6	=6	=6	=6	=6	=6
!!linebreak: 2
vi7b	4BB	4BB-	4G	4d	4.f
V/V	4EE	4C	4G	8c	.
.	.	.	.	8B-	8e
V	4AA	2FF;	4F	4A	4f
V;	4AA;	.	4F;	4A;	4f;
=7	=7	=7	=7	=7	=7
ii	2EE	2C	4.E-	8c	4.g
.	.	.	.	8d	.
.	.	.	.	4e-	.
.	.	.	8F	.	8a
vi	4BB	8GG	[2G	4d	4b-
.	.	8AA	.	.	.
vib	4BB	8BB-	.	4d	4b-
.	.	8C	.	.	.
=8	=8	=8	=8	=8	=8
V/vi	2FF#	2D	4G]	4.d	4.a
.	.	.	4F#	.	.
.	.	.	.	8c	8a
vi	4BB	2GG;	2G;	4B-	4g
vi;	4BB;	.	.	4B-;	4g;
=9	=9	=9	=9	=9	=9
I	4DD	4BB-	4F	4B-	4d
I	4DD	4BB-	4F	4B-	4d
IV	4GG	4EE-	8E-	4B-	4g
.	.	.	8D	.	.
V	4AA	4FF	4C	4A	4f
=10	=10	=10	=10	=10	=10
vi7	4BB	2GG	8BB-	4B-	4f
.	.	.	8D	.	.
V7c/V	4EE	.	8C	4B-	4e
.	.	.	8BB-	.	.
V;	2AA;	2FF;	2C;	2A;	2f;
=11	=11	=11	=11	=11	=11
IV	4GG	4EE-	4E-	4B-	4g
I	4DD	4BB-	4D	8B-	4f
.	.	.	.	8A	.
ii	4EE	4C	4E-	8G	4e-
.	.	.	.	8A	.
Ib	4DD	4D	4F	4B-	4d
=12	=12	=12	=12	=12	=12
ii7b	4EE	8E-	4G	4B-	4.c
.	.	8C	.	.	.
V	4AA	8F	8.F	4A	.
.	.	8FF	.	.	8B-
.	.	.	16E-	.	.
I;	2DD;	2BB-;	2D;	2B-;	2B-;
==	==	==	==	==	==
*-	*-	*-	*-	*-	*-
!!!CDT: 1685/3//-1750/7/28
!!!OCY: Deutschland
!!!AGN: chorale
!!!AST: Baroque
!!!AIN: vox
!!!YOY: 1941
!!!PPP: New York; London
!!!PPR: G. Schirmer
!!!ENC: David Huron
!!!EED: David Huron
!!!YEN: United States of America
!!!YER: 1992
!!!YEC: Copyright 1992 David Huron
!!!YEM: Rights to all derivative electronic formats reserved.
!!!YER: March 20, 1996
!!!AMT: simple quadruple
!!!EEV: 1.1
!!chor2scor: -l 2 -s 0.6 -o %b.pmx
